svgs/regular/link-horizontal-slash.svg

<svg xmlns="http://www.w3.org/2000/svg" viewBox="0 0 640 512"><!-- Font Awesome Pro 6.0.0-alpha2 by @fontawesome - https://fontawesome.com License - https://fontawesome.com/license (Commercial License) --><path d="M144 304C91.062 304 48 260.938 48 208C48 186.117 55.646 166.16 68.02 149.996L30.418 120.525C11.633 144.852 0 174.955 0 208C0 287.406 64.594 352 144 352H167.451C163.061 336.648 160 320.746 160 304H144ZM573.842 424.451C613.48 398.83 640 354.633 640 304C640 224.594 575.406 160 496 160H472.549C476.939 175.352 480 191.254 480 208H496C548.938 208 592 251.062 592 304C592 343.789 567.662 377.979 533.098 392.518L414.338 299.436C435.184 274.617 448 242.928 448 208C448 128.594 383.406 64 304 64H144C134.908 64 126.125 65.146 117.514 66.791L38.814 5.109C34.408 1.672 29.189 0 24.033 0C16.908 0 9.846 3.156 5.127 9.188C-3.061 19.625 -1.248 34.717 9.189 42.889L601.186 506.883C611.686 515.086 626.748 513.211 634.873 502.805C643.061 492.367 641.248 477.273 630.811 469.102L573.842 424.451ZM376.66 269.904L305.107 213.824C314.848 210.395 325.07 208 336 208H368C368 188.766 359.355 171.674 345.857 160H336C309.125 160 284.189 167.656 262.783 180.65L175.193 112H304C356.938 112 400 155.062 400 208C400 231.762 391.061 253.23 376.66 269.904ZM336 400C283.062 400 240 356.938 240 304C240 297.904 240.707 291.984 241.799 286.201L201.32 254.475C195.596 269.982 192 286.527 192 304C192 383.406 256.594 448 336 448H448.234L386.992 400H336Z"/></svg>

<svg xmlns="http://www.w3.org/2000/svg" viewBox="0 0 640 512"><!--! Font Awesome Pro 6.0.0-alpha3 by @fontawesome - https://fontawesome.com License - https://fontawesome.com/license (Commercial License) --><path d="M144 304c-52.94 0-96-43.06-96-96c0-21.88 7.646-41.84 20.02-58L30.39 120.5C11.6 144.8 0 174.1 0 208C0 287.4 64.59 352 144 352h23.45C163.1 336.6 160 320.7 160 304H144zM573.9 424.5C613.5 398.9 640 354.6 640 304C640 224.6 575.4 160 496 160h-23.45C476.9 175.4 480 191.3 480 208h16c52.94 0 96 43.06 96 96c0 39.79-24.34 73.98-58.9 88.52l-118.8-93.11C435.1 274.6 448 242.9 448 208C448 128.6 383.4 64 304 64h-160C134.9 64 126.1 65.14 117.5 66.79L38.81 5.109C34.41 1.672 29.19 0 24.03 0c-7.125 0-14.19 3.156-18.91 9.187c-8.188 10.44-6.375 25.53 4.062 33.7l591.1 463.1c10.5 8.203 25.56 6.328 33.69-4.078c8.188-10.44 6.375-25.53-4.062-33.7L573.9 424.5zM376.7 269.9L305.1 213.8C314.8 210.4 325.1 208 336 208h32c0-19.23-8.645-36.33-22.14-48H336C309.1 160 284.2 167.7 262.8 180.7L175.2 112H304c52.94 0 96 43.06 96 96C400 231.8 391.1 253.2 376.7 269.9zM336 400c-52.94 0-96-43.06-96-96c0-6.096 .707-12.02 1.799-17.8L201.3 254.5C195.6 269.1 192 286.5 192 304c0 79.41 64.59 144 144 144h112.2l-61.24-48H336z"/></svg>
